src/static/logos/elasticsearch.svg

<?xml version="1.0" encoding="UTF-8"?>
<svg width="256px" height="286px" viewBox="0 0 256 286" version="1.1" xmlns="http://www.w3.org/2000/svg" xmlns:xlink="http://www.w3.org/1999/xlink" preserveAspectRatio="xMidYMid">
		<g>
				<path d="M14.3443,80.1733 L203.5503,80.1733 C224.4013,80.1733 243.0203,70.6123 255.5133,55.6863 C229.4533,21.8353 188.5523,0.0003 142.5303,0.0003 C86.1783,0.0003 37.4763,32.7113 14.3443,80.1733" fill="#F0BF1A"></path>
				<path d="M187.5152,102.4438 L5.7552,102.4438 C2.0332,115.1648 0.0002,128.6068 0.0002,142.5298 C0.0002,156.4538 2.0332,169.8968 5.7552,182.6168 L187.5152,182.6168 C209.3402,182.6168 227.6022,164.8008 227.6022,142.5298 C227.6022,120.2598 209.7862,102.4438 187.5152,102.4438" fill="#07A5DE"></path>
				<path d="M255.9996,228.7548 C243.5856,214.1638 225.1166,204.8868 204.4406,204.8868 L14.3446,204.8868 C37.4766,252.3498 86.1786,285.0598 142.5296,285.0598 C188.8356,285.0598 229.9656,262.9628 255.9996,228.7548" fill="#3EBEB0"></path>
				<path d="M5.7555,102.4438 C2.0325,115.1648 0.0005,128.6068 0.0005,142.5298 C0.0005,156.4538 2.0325,169.8968 5.7555,182.6168 L124.7135,182.6168 C127.8315,170.5908 129.6125,157.2288 129.6125,142.5298 C129.6125,127.8318 127.8315,114.4698 124.7135,102.4438 L5.7555,102.4438 Z" fill="#231F20"></path>
				<path d="M70.8199,19.1528 C46.7669,33.4058 26.7239,54.7848 14.2529,80.1738 L119.3689,80.1738 C108.6789,55.6758 91.7539,35.1878 70.8199,19.1528" fill="#D7A229"></path>
				<path d="M75.274,268.1347 C95.762,251.6547 112.242,229.8297 122.487,204.8867 L14.253,204.8867 C27.615,231.6117 48.995,253.8817 75.274,268.1347" fill="#019B8F"></path>
		</g>
</svg>

<svg width="256" height="286" xmlns="http://www.w3.org/2000/svg" preserveAspectRatio="xMidYMid"><path d="M14.344 80.173H203.55c20.851 0 39.47-9.56 51.963-24.487C229.453 21.836 188.553 0 142.53 0 86.178 0 37.476 32.711 14.344 80.173" fill="#F0BF1A"/><path d="M187.515 102.444H5.755A142.508 142.508 0 000 142.53c0 13.924 2.033 27.367 5.755 40.087h181.76c21.825 0 40.087-17.816 40.087-40.087 0-22.27-17.816-40.086-40.087-40.086" fill="#07A5DE"/><path d="M256 228.755c-12.414-14.591-30.883-23.868-51.56-23.868H14.346C37.477 252.35 86.179 285.06 142.53 285.06c46.306 0 87.436-22.097 113.47-56.305" fill="#3EBEB0"/><path d="M5.755 102.444a142.472 142.472 0 000 80.173h118.959c3.118-12.026 4.899-25.388 4.899-40.087 0-14.698-1.781-28.06-4.9-40.086H5.757z" fill="#231F20"/><path d="M70.82 19.153c-24.053 14.253-44.096 35.632-56.567 61.02h105.116c-10.69-24.497-27.615-44.985-48.55-61.02" fill="#D7A229"/><path d="M75.274 268.135c20.488-16.48 36.968-38.305 47.213-63.248H14.253c13.362 26.725 34.742 48.995 61.021 63.248" fill="#019B8F"/></svg>
